public/svg/mimi.svg

<svg width="139" height="71" viewBox="0 0 139 71" fill="none" xmlns="http://www.w3.org/2000/svg">
<path d="M24.3598 41.2281C21.0103 39.9842 17.0417 44.1556 14.7566 45.8565C11.1351 48.5989 6.65751 50.0395 2.87986 52.6025C-4.37462 57.5376 3.89803 65.0299 7.79138 69.803C7.83188 69.8551 7.87239 69.9072 7.91288 69.9534L8.10376 70.1906C8.13936 70.2404 8.18622 70.281 8.24052 70.3091C8.29481 70.3373 8.35502 70.3522 8.41618 70.3527C10.0996 71.3593 12.6566 69.7451 14.2013 68.8484C19.4078 65.8399 25.2276 63.5719 29.9482 59.8576C35.6002 55.4432 29.792 43.2414 24.3598 41.2281ZM3.64349 53.9158C8.11536 50.5255 13.5475 48.7435 18.0483 45.3242C19.2434 44.3499 20.5575 43.5314 21.959 42.8885C22.2384 42.771 22.5322 42.6912 22.8326 42.6513C20.3161 47.3434 21.1549 55.5994 15.3756 56.7218C12.4351 57.1991 9.45565 57.3928 6.47816 57.3004C5.1071 57.3004 3.1402 56.6697 1.80384 56.988C1.86595 56.3722 2.06297 55.7776 2.38094 55.2466C2.6989 54.7156 3.12999 54.2613 3.64349 53.9158ZM8.4046 68.7732C6.53602 65.7473 2.52696 61.7668 1.86168 58.2839C3.23853 59.441 6.75007 59.441 9.96078 59.2212C9.71203 61.2114 9.43434 63.1959 9.23186 65.1977C9.13351 66.1697 8.65336 67.9285 8.95419 69.0972C8.7817 69.0305 8.61992 68.9389 8.47402 68.8253C8.45221 68.8062 8.42901 68.7888 8.4046 68.7732ZM27.8135 59.3138C24.7243 61.7321 20.8194 63.1033 17.4004 64.9894C15.9599 65.782 12.9517 68.5591 10.5682 69.1261C10.95 68.131 10.817 66.6325 10.9153 65.782C11.2219 63.5665 11.3534 61.3302 11.3087 59.0939C13.3508 58.8856 15.1037 58.6021 15.8442 58.4806C18.8467 57.9947 20.4723 55.8945 21.5078 53.2389C22.8268 53.8753 24.1747 54.4712 25.5169 55.0556C26.859 55.6399 28.3226 56.6524 29.7573 56.826C29.3286 57.8054 28.6601 58.6609 27.8135 59.3138ZM30.2433 55.1597C29.2598 54.425 27.7557 54.0662 26.6912 53.6612C25.135 53.0827 23.5499 52.5042 21.9417 52.0587C22.9136 48.9981 23.3243 45.4515 24.2152 42.8017C25.7888 43.3803 26.9168 45.2606 27.773 46.6781C29.2771 49.1774 30.6309 52.3306 30.2433 55.1597Z" fill="#3A3C51"/>
<path d="M138.779 8.27254C138.246 7.03442 136.679 6.57737 135.516 6.11453C135.406 6.06824 135.29 6.03931 135.18 5.99881C135.377 5.87731 135.585 5.7616 135.759 5.64011C135.948 5.52963 136.085 5.34869 136.14 5.13712C136.195 4.92554 136.164 4.70065 136.054 4.51191C135.943 4.32318 135.763 4.18605 135.551 4.13071C135.339 4.07538 135.115 4.10636 134.926 4.21684C134.301 4.52348 133.653 4.82434 133.011 5.13097C133.439 3.71351 134.07 2.23819 133.942 0.867005C133.937 0.714117 133.893 0.565071 133.814 0.43404C133.735 0.303008 133.624 0.19434 133.491 0.118382C133.359 0.0424249 133.209 0.00167774 133.056 5.07038e-05C132.903 -0.00157633 132.752 0.0359793 132.618 0.109095C130.807 0.994289 129.534 4.29205 129.147 6.13187C129.09 6.40089 129.09 6.67863 129.147 6.94765L128.267 7.35261C128.309 6.14851 128.169 4.94496 127.851 3.78292C127.783 3.528 127.632 3.30269 127.423 3.14197C127.214 2.98125 126.958 2.89411 126.694 2.89411C126.43 2.89411 126.173 2.98125 125.964 3.14197C125.755 3.30269 125.605 3.528 125.537 3.78292C124.987 5.57645 124.652 7.42784 124.189 9.24451C122.274 10.1644 120.376 11.119 118.543 12.1373C112.555 7.69398 101.552 7.78656 98.4221 14.7177C94.5229 6.46745 78.5388 8.09319 77.1214 17.7204C76.4562 22.2216 80.0603 26.231 83.5834 29.4651C80.9107 31.0214 78.29 32.6877 75.7273 34.4176C75.0997 33.6252 74.3879 32.9035 73.6041 32.2653C73.5333 32.2071 73.4479 32.1693 73.3572 32.156C73.2664 32.1428 73.1738 32.1545 73.0893 32.1901C72.9952 32.177 72.8998 32.177 72.8058 32.1901C71.805 32.3752 71.2727 33.8448 70.7579 34.6085C69.8048 36.0281 68.6732 37.3191 67.391 38.4501C66.3149 39.3989 67.6802 40.8685 68.8315 40.3189C71.4378 39.0725 74.4254 38.8838 77.1677 39.7924C78.0471 40.0701 78.9785 38.9708 78.4115 38.1782C77.8446 37.3856 77.3239 36.5929 76.7859 35.8292C79.557 34.1804 82.4264 32.653 85.047 30.7785C85.8627 31.4959 86.6437 32.1728 87.3205 32.7918C90.7916 35.9797 95.3907 43.3158 101.048 40.099C104.456 38.1608 107.487 35.7077 110.941 33.8332C113.999 32.2682 116.849 30.3244 119.422 28.0476C123.425 24.3391 124.05 18.675 120.752 14.3011C120.671 14.1912 120.567 14.0986 120.475 13.9887L124.524 11.8827C124.624 11.989 124.737 12.0823 124.86 12.1604C126.104 12.8605 127.243 13.7168 128.499 14.3879C130.674 15.545 132.606 12.2704 130.431 11.0785C129.737 10.6967 129.089 10.257 128.429 9.82307C129.245 9.38336 130.055 8.92629 130.865 8.47502C131.918 8.81637 132.982 9.1346 134.029 9.51066C135.186 9.92144 136.077 10.6677 137.292 10.7835C138.744 10.9397 139.224 9.30816 138.779 8.27254ZM105.486 34.5564C103.021 36.2111 99.8394 39.7634 96.351 38.2649C94.4477 37.4434 92.7816 35.3722 91.3701 33.9316C88.6222 31.0908 85.6486 28.4873 82.9354 25.6177C77.7809 20.1619 79.0074 12.9183 86.9445 12.0968C90.8668 11.6918 95.8708 13.0514 97.7973 16.7253C97.7973 16.8005 97.7626 16.8699 97.7452 16.9509C97.5138 18.2469 99.4807 18.7965 99.7237 17.4947C101.054 9.79415 110.773 10.0314 116.448 13.4043C114.234 14.7664 112.162 16.348 110.264 18.1254C110.151 18.2468 110.084 18.4045 110.077 18.5704C110.069 18.7363 110.12 18.8996 110.222 19.031C110.323 19.1624 110.468 19.2535 110.631 19.2879C110.793 19.3223 110.963 19.2978 111.109 19.2188C113.55 17.7319 116.055 16.3261 118.583 15.0127C127.486 23.6217 110.796 30.9809 105.48 34.5564H105.486Z" fill="#3A3C51"/>
</svg>

<svg xmlns="http://www.w3.org/2000/svg" width="139" height="71" fill="#3a3c51" xmlns:v="https://vecta.io/nano"><path d="M24.36 41.228c-3.35-1.244-7.318 2.928-9.603 4.628-3.622 2.742-8.1 4.183-11.877 6.746-7.254 4.935 1.018 12.427 4.912 17.2.04.052.08.104.122.15l.2.237c.036.05.082.1.137.118s.114.043.176.044c1.683 1.007 4.24-.608 5.785-1.504 5.207-3.008 11.026-5.276 15.747-9 5.652-4.414-.156-16.616-5.588-18.63zM3.643 53.916c4.472-3.4 9.904-5.172 14.405-8.592a18.24 18.24 0 0 1 3.91-2.436 3.44 3.44 0 0 1 .874-.237c-2.517 4.692-1.678 12.948-7.457 14.07a46.74 46.74 0 0 1-8.897.58c-1.37 0-3.338-.63-4.674-.312a4.21 4.21 0 0 1 1.84-3.072zm4.76 14.857c-1.87-3.026-5.878-7.006-6.543-10.5 1.377 1.157 4.888 1.157 8.1.937l-.73 5.976c-.098.972-.578 2.73-.278 3.9a1.9 1.9 0 0 1-.48-.272.44.44 0 0 0-.07-.052zm19.4-9.46c-3.1 2.418-6.994 3.8-10.413 5.676-1.44.793-4.45 3.57-6.832 4.137.382-.995.25-2.494.347-3.344a42.58 42.58 0 0 0 .393-6.688 75.41 75.41 0 0 0 4.536-.613c3.002-.486 4.628-2.586 5.664-5.242 1.32.636 2.667 1.232 4 1.817s2.806 1.597 4.24 1.77a6.37 6.37 0 0 1-1.944 2.488zm2.43-4.154c-.984-.735-2.488-1.093-3.552-1.498-1.556-.578-3.14-1.157-4.75-1.602.972-3.06 1.383-6.607 2.273-9.257 1.574.58 2.702 2.46 3.558 3.876 1.504 2.5 2.858 5.652 2.47 8.482zM138.78 8.273c-.533-1.238-2.1-1.695-3.263-2.158-.1-.046-.226-.075-.336-.116l.58-.36a.82.82 0 0 0 .381-.503.83.83 0 0 0-.086-.625.81.81 0 0 0-.503-.38.83.83 0 0 0-.625.086l-1.915.914c.428-1.417 1.06-2.893.93-4.264-.005-.153-.05-.302-.128-.433s-.2-.24-.323-.316a.89.89 0 0 0-.435-.118.88.88 0 0 0-.438.11c-1.8.885-3.084 4.183-3.47 6.023a1.97 1.97 0 0 0 0 .816l-.88.405a11.95 11.95 0 0 0-.416-3.57 1.2 1.2 0 0 0-.428-.641c-.2-.16-.465-.248-.73-.248a1.2 1.2 0 0 0-1.157.889c-.55 1.794-.885 3.645-1.348 5.462l-5.646 2.893c-5.988-4.443-17-4.35-20.12 2.58-3.9-8.25-19.883-6.625-21.3 3.003-.665 4.5 2.94 8.5 6.462 11.745-2.673 1.556-5.293 3.223-7.856 4.953a13.92 13.92 0 0 0-2.123-2.152.51.51 0 0 0-.247-.11c-.09-.014-.183-.002-.268.034a1.03 1.03 0 0 0-.283 0c-1 .185-1.533 1.655-2.048 2.418-.953 1.42-2.085 2.7-3.367 3.842-1.076.95.3 2.418 1.44 1.87 2.606-1.246 5.594-1.435 8.336-.526.88.278 1.8-.822 1.244-1.614l-1.626-2.35c2.77-1.65 5.64-3.176 8.26-5.05l2.273 2.013c3.47 3.188 8.07 10.524 13.728 7.307 3.408-1.938 6.44-4.4 9.893-6.266a40.95 40.95 0 0 0 8.481-5.786c4.003-3.7 4.628-9.373 1.33-13.746-.08-.1-.185-.203-.277-.312l4.05-2.106c.1.106.213.2.336.278 1.244.7 2.383 1.556 3.64 2.228 2.175 1.157 4.107-2.117 1.932-3.3-.694-.382-1.342-.822-2.002-1.255l2.436-1.348 3.164 1.036c1.157.4 2.048 1.157 3.263 1.273 1.452.156 1.932-1.475 1.487-2.5zm-33.293 26.284c-2.465 1.655-5.647 5.207-9.135 3.7-1.903-.822-3.57-2.893-4.98-4.333-2.748-2.84-5.72-5.444-8.435-8.314-5.154-5.456-3.928-12.7 4-13.52 3.922-.405 8.926.955 10.853 4.63 0 .075-.035.145-.052.226-.23 1.296 1.736 1.846 1.978.544 1.33-7.7 11.05-7.463 16.724-4.1a38.76 38.76 0 0 0-6.184 4.721c-.113.12-.18.28-.187.445a.7.7 0 0 0 .145.46c.102.13.246.223.4.257a.7.7 0 0 0 .478-.069 126.5 126.5 0 0 1 7.474-4.206c8.903 8.6-7.787 15.968-13.103 19.544h.006z"/></svg>
